X: 57
T:Drunk at Night and.. BF13.056
M:3/4
L:1/8
Q:90
S:J.Lishman()MS,c1825,Lakes,Browne Coll.
R:Air
O:England
A:Lakes
N:...& Dry in the Morning. See another version of the same tune in Gow's
N:Repository, and also BF11.69., where it is in 3sharps.This seems to be
N:music from  Planet Bagpipe, so I have not attempted to edit it. Or forma
N:it.CGP
Z:vmp.Chris Partington
K:D
"Exactly as written"AB|c4|c>B AB AB/c/|D2ABA/B/c/|c2B2AB|cB AB ABc|\
DCB,C DF|AB/c/|A4::G,2A,2B,2|CECEC|B,2ECEC|G,2ABA/B/|c2B2G,A,/B,/|\
C2ECEC|B,2DB,DB,|G,2AAB|A3G,A,B,|C2ECEC|B,2DB,DB,|G,2ABAB|\
c2B2AB|cB AB (AB/c/)|D2C2B,2C2|DF|E2AA|A4:|!
|:G,2ga/g/e2|G,2g2ga|g3fe2|G,2ga/g/e2|G,2ga/g/e2|G,2c2c2|c2BA/B/|\
cBAB AB/c/|DCB,C DF|E2A2BA/B/|c2B2A2|.e2.A2.D2|D2|\
G/F/E/D/ E/D/C/B,/ D/C/B,/A,/|G,2ABA|A4:|!
|:c>B|A2a4|A2a4|A2c3cA2|A2aAaA|AgAgA|\
A2c2c2c3BA/B/|cB AB AB/c/|DCB,C DF|E2A2BA/B/|c2B2A2|.e e .A A .D D|\
G/F/E/D/ E/D/C/B,/ D/C/A,/G,/|G,2A2AB|A4:|!
|:.D2.e2.A2.D2.e2.A2.D2c2c2|c3BA|.D D .e e .A A|.D D .e e .A A|\
.D D .e e .A A|D D c2c2|c3BA/B/|cB AB AB/c/|DCB,C DF|E2A2BA/B/|c2B2A2|\
.e e .A A .D D|G/F/E/D/ E2D2C2B,2DCA,G, |G2A2AB|A4:|!
|:D2c2A2|D2c2A2|D2c2c2|c3BA2|DD cc AA|DD cc AA|D2A2A2|c3BA/B/|\
cB AB AB/c/|DCB,C DF|E2A2BA/B/|c2B2A2|\
.e e .A A .D D |G/F/E/D/ E/D/C/B,/|DCA,G,|G2A2AB|A4:|!
|:G,2.e2.A2.e2.D2.e2|G,2.e .A .e .D e|G, A c2c2|c2c.A|.G,2.e.A2.e .D .e|
\
G,2.e A .e .D e|.e|G,2Ac2c2|c3BAB|cB AB AB/c/|DCB,C DF|E2F2BA/B/|\
c2A2A2|.e e .A A .D D|(3GFE (3EDC (3DCB,|C2AB|A6:|!
|:G,/A,/B,/C2E/C/B,/C/ ECBC|B,2D/C/B,/C/ DB,BB,G,2A2B/A/B|\
c2B2G,A,/B,/|C2E/C/B,/C/ E/C/B/C/|B,2D/B,/C/ D/B,/G/B,|\
G,2A2AB|A4G,A,/B,/|C2E/C/B,/C/ E/C/B/C/|\
B,2D/C/B,/C/ D/C/F/C/G,2F2G/F/G/ ABA/B/|\
c2B2A2|.e e .A A .D D|GFE EDC|CB,B,|G,2A2AB|A4:|]
